frontend/public/socials/instagram.svg

<svg xmlns="http://www.w3.org/2000/svg" xmlns:xlink="http://www.w3.org/1999/xlink" viewBox="0,0,256,256" width="24px" height="24px" fill-rule="nonzero"><g fill="#ffffff" fill-rule="nonzero" stroke="none" stroke-width="1" stroke-linecap="butt" stroke-linejoin="miter" stroke-miterlimit="10" stroke-dasharray="" stroke-dashoffset="0" font-family="none" font-weight="none" font-size="none" text-anchor="none" style="mix-blend-mode: normal"><g transform="scale(10.66667,10.66667)"><path d="M8,3c-2.761,0 -5,2.239 -5,5v8c0,2.761 2.239,5 5,5h8c2.761,0 5,-2.239 5,-5v-8c0,-2.761 -2.239,-5 -5,-5zM18,5c0.552,0 1,0.448 1,1c0,0.552 -0.448,1 -1,1c-0.552,0 -1,-0.448 -1,-1c0,-0.552 0.448,-1 1,-1zM12,7c2.761,0 5,2.239 5,5c0,2.761 -2.239,5 -5,5c-2.761,0 -5,-2.239 -5,-5c0,-2.761 2.239,-5 5,-5zM12,9c-1.65685,0 -3,1.34315 -3,3c0,1.65685 1.34315,3 3,3c1.65685,0 3,-1.34315 3,-3c0,-1.65685 -1.34315,-3 -3,-3z"></path></g></g></svg>

<?xml version="1.0"?><svg xmlns="http://www.w3.org/2000/svg"  viewBox="0 0 24 24" width="24px" height="24px">    <path d="M 8 3 C 5.239 3 3 5.239 3 8 L 3 16 C 3 18.761 5.239 21 8 21 L 16 21 C 18.761 21 21 18.761 21 16 L 21 8 C 21 5.239 18.761 3 16 3 L 8 3 z M 18 5 C 18.552 5 19 5.448 19 6 C 19 6.552 18.552 7 18 7 C 17.448 7 17 6.552 17 6 C 17 5.448 17.448 5 18 5 z M 12 7 C 14.761 7 17 9.239 17 12 C 17 14.761 14.761 17 12 17 C 9.239 17 7 14.761 7 12 C 7 9.239 9.239 7 12 7 z M 12 9 A 3 3 0 0 0 9 12 A 3 3 0 0 0 12 15 A 3 3 0 0 0 15 12 A 3 3 0 0 0 12 9 z"/></svg>
